assets/ai/ai-scopus-square.svg

<svg xmlns="http://www.w3.org/2000/svg" width="100%" height="100%" viewBox="-75.52 -43.52 599.04 599.04"><path d="M 48 32 C 21.5 32 0 53.5 0 80 L 0 432 C 0 458.5 21.5 480 48 480 L 400 480 C 426.5 480 448 458.5 448 432 L 448 80 C 448 53.5 426.5 32 400 32 L 48 32 z M 64 96 L 384 96 L 384 416 L 64 416 L 64 96 z M 161.3457 179.27148 C 134.86029 179.27148 118.71289 196.49751 118.71289 218.46094 C 118.71289 240.42442 138.09122 249.89962 155.74805 260.66602 C 168.88304 268.63317 182.66211 274.01693 182.66211 288.22852 C 182.66211 302.00953 170.39032 311.91602 155.74805 311.91602 C 141.32122 311.91602 131.84701 308.68293 120.86523 302.00781 L 118.2793 319.01953 C 129.47652 324.18737 140.88836 326.55664 156.60742 326.55664 C 178.57101 326.55664 201.61133 312.99217 201.61133 286.07617 C 201.61133 265.61999 183.52341 256.3592 166.08203 246.02344 C 152.51617 237.84099 138.08984 232.24286 138.08984 217.16992 C 138.08984 205.97285 146.27233 193.70117 162.42188 193.70117 C 176.41823 193.70117 186.10917 195.85063 198.38281 203.17188 L 199.45898 186.16406 C 188.04631 181.42684 179.86388 179.27148 161.3457 179.27148 z M 296.09961 179.27148 C 254.32594 179.27148 222.67383 211.78591 222.67383 253.12891 C 222.67383 300.28572 260.35646 326.12695 295.45508 326.12695 C 313.11191 326.12695 327.75313 323.75717 339.38086 317.94336 L 338.08984 301.57812 C 324.95485 308.68392 310.95729 311.48438 296.96094 311.48438 C 266.38414 311.48438 242.05273 285.85971 242.05273 251.83789 C 242.05273 215.87814 265.95258 193.70117 293.94531 193.70117 C 311.60214 193.70117 325.1699 196.49951 338.08984 203.60547 L 339.38086 187.45508 C 327.53771 181.85658 317.84775 179.27148 296.09961 179.27148 z"/></svg>

<svg xmlns="http://www.w3.org/2000/svg" width="100%" height="100%" viewBox="-75.52 -43.52 599.04 599.04"><path d="M48 32C21.5 32 0 53.5 0 80v352c0 26.5 21.5 48 48 48h352c26.5 0 48-21.5 48-48V80c0-26.5-21.5-48-48-48H48zm16 64h320v320H64V96zm97.346 83.271c-26.486 0-42.633 17.227-42.633 39.19 0 21.963 19.378 31.439 37.035 42.205 13.135 7.967 26.914 13.35 26.914 27.563 0 13.78-12.272 23.687-26.914 23.687-14.427 0-23.901-3.233-34.883-9.908l-2.586 17.012c11.198 5.167 22.61 7.537 38.328 7.537 21.964 0 45.004-13.565 45.004-40.48 0-20.457-18.088-29.718-35.529-40.054-13.566-8.182-27.992-13.78-27.992-28.853 0-11.197 8.182-23.469 24.332-23.469 13.996 0 23.687 2.15 35.96 9.47l1.077-17.007c-11.413-4.737-19.595-6.893-38.113-6.893zm134.754 0c-41.774 0-73.426 32.515-73.426 73.858 0 47.157 37.682 72.998 72.781 72.998 17.657 0 32.298-2.37 43.926-8.184l-1.291-16.365c-13.135 7.106-27.133 9.906-41.13 9.906-30.576 0-54.907-25.624-54.907-59.646 0-35.96 23.9-58.137 51.892-58.137 17.657 0 31.225 2.799 44.145 9.904l1.29-16.15c-11.842-5.598-21.532-8.184-43.28-8.184z"/></svg>
